public/assets/icons/posts.svg

<svg width="20" height="20" viewBox="0 0 20 20" fill="none" xmlns="http://www.w3.org/2000/svg">
<g clip-path="url(#clip0_1607_406)">
<path d="M1.66675 9.99984C1.66675 6.07147 1.66675 4.10728 2.88714 2.88689C4.10752 1.6665 6.07171 1.6665 10.0001 1.6665C13.9285 1.6665 15.8926 1.6665 17.113 2.88689C18.3334 4.10728 18.3334 6.07147 18.3334 9.99984C18.3334 13.9282 18.3334 15.8924 17.113 17.1128C15.8926 18.3332 13.9285 18.3332 10.0001 18.3332C6.07171 18.3332 4.10752 18.3332 2.88714 17.1128C1.66675 15.8924 1.66675 13.9282 1.66675 9.99984Z" stroke="#877EFF" stroke-width="1.5"/>
<circle cx="13.3334" cy="6.66667" r="1.66667" stroke="#877EFF" stroke-width="1.5"/>
<path d="M1.66675 10.4169L3.1264 9.13976C3.8858 8.47529 5.03031 8.5134 5.74382 9.22691L9.31859 12.8017C9.89128 13.3744 10.7928 13.4525 11.4554 12.9868L11.7039 12.8121C12.6574 12.142 13.9475 12.2196 14.8138 12.9993L17.5001 15.4169" stroke="#877EFF" stroke-width="1.5" stroke-linecap="round"/>
</g>
<defs>
<clipPath id="clip0_1607_406">
<rect width="20" height="20" fill="white"/>
</clipPath>
</defs>
</svg>

<svg width="20" height="20" viewBox="0 0 20 20" fill="none" xmlns="http://www.w3.org/2000/svg"><g clip-path="url(#a)" stroke="#877EFF" stroke-width="1.5"><path d="M1.667 10c0-3.929 0-5.893 1.22-7.113S6.072 1.667 10 1.667s5.893 0 7.113 1.22 1.22 3.184 1.22 7.113c0 3.928 0 5.892-1.22 7.113-1.22 1.22-3.184 1.22-7.113 1.22-3.928 0-5.892 0-7.113-1.22-1.22-1.22-1.22-3.185-1.22-7.113Z"/><circle cx="13.333" cy="6.667" r="1.667"/><path d="m1.667 10.417 1.46-1.277a1.917 1.917 0 0 1 2.617.087l3.575 3.575c.572.572 1.474.65 2.136.185l.249-.175a2.5 2.5 0 0 1 3.11.187l2.686 2.418" stroke-linecap="round"/></g><defs><clipPath id="a"><path fill="#fff" d="M0 0h20v20H0z"/></clipPath></defs></svg>
